icon-themes/breeze_svg/cmd/lc_moveup.svg

<svg viewBox="0 0 24 24" xmlns="http://www.w3.org/2000/svg"><path d="m4 4v1h16v-1zm0 2v1h13v-1zm0 4v1h9v-1zm0 2v1h3 1v-1h-1zm6 0v1h2v-1zm-6 4v1h16v-1zm0 2v1h3 10v-1h-10zm14 1v1h2v-1z" fill="#4d4d4d"/><path d="m17 10-3 4h6z" fill="#1d99f3"/></svg>

<svg xmlns="http://www.w3.org/2000/svg" viewBox="0 0 24 24">
 <path 
     style="fill:#4d4d4d" 
     d="M 4 4 L 4 5 L 20 5 L 20 4 L 4 4 z M 4 6 L 4 7 L 17 7 L 17 6 L 4 6 z M 4 10 L 4 11 L 13 11 L 13 10 L 4 10 z M 4 12 L 4 13 L 7 13 L 8 13 L 8 12 L 7 12 L 4 12 z M 10 12 L 10 13 L 12 13 L 12 12 L 10 12 z M 4 16 L 4 17 L 20 17 L 20 16 L 4 16 z M 4 18 L 4 19 L 7 19 L 17 19 L 17 18 L 7 18 L 4 18 z M 18 19 L 18 20 L 20 20 L 20 19 L 18 19 z "
     />
 <path 
     style="fill:#1d99f3" 
     d="M 17 10 L 14 14 L 20 14 L 17 10 z "
     />
 </svg>
